X:23
T:Ezt a kislányt igazán, csakugyan
M:4/4
L:1/4
K:F
AAdA | B/A/G D/E/F | A<A G>F | E<D D z |
AAdA | B/A/G D/E/F | A<A G>F | E<D D z |
dddd | eccG | c/d/e/d/ A z |
AAdA | B/A/G D/E/F | A<A G>F | E<D D z |

